%
Osample( cncsample.TXT )
( 3/1/2022 AT 7:29 AM )
( OPERATION 1: CONTOUR )
( TOOL 1: 0.03125 RAD. 80-DEG. DIAMOND )
( FACE  R.031 )
N1G54
G0X4.8Z15.
G50S700M41
G97T0101S408M4
G0X4.9197Z.0553M8
G96S525
G1X4.809Z0.F.01
X-.0955F.003
X.1047Z.1001
G0M9
G97S700
X4.8Z15.
M1
( OPERATION 2: ROUGH )
( TOOL 9: 0.03125 RAD. 80-DEG. DIAMOND )
( TURN R.031 )
N2G54
G0X4.8Z15.
G50S600M41
G97T0909S382M4
G0X4.9173Z.1M8
Z.0317
G1X4.75F.008
G96S475
X4.6658
Z.0067
X4.7017Z-.0112
G3X4.72Z-.0333R.0313
G1Z-1.2159
X4.7276Z-1.2192
X4.7461Z-1.2284
X4.75
X4.9202Z-1.1433
( OPERATION 3: CONTOUR )
( TOOL 9: 0.03125 RAD. 80-DEG. DIAMOND )
( TURN R.031 )
G0
S425
Z.0762
X4.8048
G1X4.6558Z.0017F.005
X4.6917Z-.0162
G3X4.71Z-.0383R.0313
G1Z-1.2209
X4.7176Z-1.2242
X4.7361Z-1.2334
X4.9102Z-1.1464
G0
Z.1M9
G97S331
X4.8Z15.
M1
( OPERATION 5: HOLES )
( TOOL 3: 2 DIA. DRILL )
( 2.0" CARBIDE INSERT DRILL )
N3G54
G0X4.8Z15.
G50S750M41
G97T0303S750M3
G0X0.Z.1002M8
G1Z.1F.003
Z-2.51
G0Z.1
M9
X4.8Z15.
M1
( OPERATION 7: ROUGH )
( TOOL 5: 0.03125 RAD. 80-DEG. DIAMOND )
( BORE R.031 )
N4G54
G0X4.8Z15.
G50S700M41
G97T0505S700M4
G0X1.8212Z.1M8
Z.0179
G1X2.F.008
G96S425
X2.1F.01
Z-2.5404F.008
X2.
G0Z.0179
G1X2.1
X2.2F.01
Z-2.5404F.008
X2.1
G0Z.0179
G1X2.2
X2.3F.01
Z-2.5404F.008
X2.2
G0Z.0179
G1X2.3
X2.4F.01
Z-2.5404F.008
X2.3
G0Z.0179
G1X2.4
X2.5F.01
Z-2.5404F.008
X2.4
G0Z.0179
G1X2.5
X2.6F.01
Z-2.5404F.008
X2.5
G0Z.0179
G1X2.6
X2.7F.01
Z-2.5404F.008
X2.6
G0Z.0179
G1X2.7
X2.8F.01
Z-2.5404F.008
X2.7
G0Z.0179
G1X2.8
X2.9F.01
Z-2.5404F.008
X2.8
G0Z.0179
G1X2.9
X3.F.01
Z-2.5404F.008
X2.9
G0Z.0179
G1X3.
X3.1F.01
Z-2.5404F.008
X3.
G0Z.0179
G1X3.1
X3.2F.01
Z-2.5404F.008
X3.1
G0Z.0179
G1X3.2
X3.3F.01
Z-2.5404F.008
X3.2
G0Z.0179
G1X3.3
X3.4F.01
Z-2.5404F.008
X3.3
G0Z.0179
G1X3.4
X3.5F.01
Z-2.5404F.008
X3.4
G0Z.0179
G1X3.5
X3.6F.01
Z-2.5404F.008
X3.5
G0Z.0179
G1X3.6
X3.7F.01
Z-2.5404F.008
X3.6
G0Z.0179
G1X3.7
X3.7566F.01
Z-.0071F.008
X3.7383Z-.0162
G2X3.72Z-.0383R.0313
G1Z-2.5404
X3.7
X3.4998Z-2.4403
( OPERATION 8: CONTOUR )
( TOOL 5: 0.03125 RAD. 80-DEG. DIAMOND )
( BORE R.031 )
G0
G50S600
Z.0637
G1X3.615F.005
X3.7566Z-.0071
X3.7383Z-.0162
G2X3.72Z-.0383R.0313
G1Z-2.5404
X3.5198Z-2.4403
G0
Z.1
M9
G97S461
X4.8Z15.M5
M30
%
